packages/product-components/src/images/networks/bch.svg

<svg width="32" height="32" viewBox="0 0 32 32" fill="none" xmlns="http://www.w3.org/2000/svg">
<style>
@media (prefers-color-scheme: dark) {
    .background {
        fill: #F6F6F6;
    }
    .foreground {
        fill: #1F1F1F;
    }
}
</style>
<path class="background" d="M0 8C0 3.58172 3.58172 0 8 0H24C28.4183 0 32 3.58172 32 8V24C32 28.4183 28.4183 32 24 32H8C3.58172 32 0 28.4183 0 24V8Z" fill="#1F1F1F"/>
<path class="foreground" d="M21.2848 10.7289C20.4808 8.9056 18.6331 8.51575 16.3711 8.89342L15.6442 6.07515L13.9305 6.51779L14.6453 9.32793C14.1945 9.44164 13.7316 9.5391 13.2727 9.66905L12.558 6.87515L10.8443 7.31779L11.5712 10.1361C11.2016 10.2416 8.11127 11.0335 8.11127 11.0335L8.58233 12.869C8.58233 12.869 9.84121 12.5157 9.82903 12.5442C10.5275 12.3614 10.8564 12.7107 11.0108 13.0396L13.0087 20.7634C13.0331 20.9868 12.9925 21.3685 12.5133 21.4985C12.5417 21.5147 11.2666 21.8193 11.2666 21.8193L11.4534 23.9594C11.4534 23.9594 14.5153 23.1756 14.9173 23.0741L15.6524 25.9249L17.3661 25.4822L16.631 22.6112C17.1021 22.5015 17.561 22.3878 18.0077 22.27L18.7387 25.1249L20.4524 24.6822L19.7173 21.8355C22.3569 21.1939 24.2209 19.5289 23.8391 16.9827C23.5955 15.4477 21.9183 14.1888 20.5254 14.0467C21.3823 13.2873 21.8168 12.1787 21.2848 10.7289ZM20.4605 17.4497C20.8016 19.9716 17.297 20.2802 16.1397 20.5848L15.1326 16.8122C16.294 16.5076 19.8838 15.2284 20.4605 17.4497ZM18.3488 12.3127C18.7102 14.5543 15.7133 14.8142 14.7468 15.0619L13.829 11.6386C14.7996 11.399 17.6138 10.2376 18.3488 12.3127Z" fill="#F6F6F6"/>
</svg>

<svg xmlns="http://www.w3.org/2000/svg" width="32" height="32" viewBox="0 0 32 32" fill="none">
    <path class="bg" fill="#1F1F1F" d="M0 8a8 8 0 0 1 8-8h16a8 8 0 0 1 8 8v16a8 8 0 0 1-8 8H8a8 8 0 0 1-8-8z"/>
    <path class="fg" fill="#F6F6F6" d="M21.285 10.729c-.804-1.823-2.652-2.213-4.914-1.836l-.727-2.818-1.713.443.714 2.81c-.45.114-.913.211-1.372.341l-.715-2.794-1.714.443.727 2.818c-.37.106-3.46.898-3.46.898l.471 1.835s1.26-.353 1.247-.325c.698-.183 1.027.167 1.182.496l1.998 7.723c.024.224-.017.605-.496.735.029.017-1.246.321-1.246.321l.186 2.14 3.464-.885.735 2.85 1.714-.442-.735-2.87q.706-.165 1.377-.342l.73 2.855 1.714-.443-.735-2.846c2.64-.642 4.504-2.307 4.122-4.853-.243-1.535-1.92-2.794-3.314-2.936.857-.76 1.292-1.868.76-3.318m-.825 6.72c.342 2.523-3.163 2.831-4.32 3.136l-1.007-3.773c1.161-.304 4.75-1.584 5.328.638m-2.111-5.136c.361 2.241-2.636 2.501-3.602 2.749l-.918-3.423c.97-.24 3.785-1.401 4.52.674"/>
</svg>
